X: 108
T: POLKA: Weaver's Delight
C: C: Trad.; S: Denis Murphy
C: Set Leaders: Olya, Anton
Z: Anton Zille ed., Oleg Naumov arr.; Bregolas at The Session
N: https://thesession.org/members/26966/sets/71310
R: Polka
M: 2/4
L: 1/8
Q: 1/4=140
K: Dmaj
|:AG|"D"FG/F/ ED|"D"dc/d/ "D/F#"e>d|"G"cA AF|"A"G2 AG|
"D"FG/F/ ED|"D"dc/d/ "D/F#"e/f/e/d/|"G"cA Bd|1 "A"A2:|2 "A"A2 Af/g/||
|:"D"af ge|"D"fd "D/F#"e>d|"G"cd ef|"A"g2 gf/g/|
"D"af ge|"D"fd "D/F#"e/f/e/d/|"G"cA Bd|1 "A"A2 Af/g/:|2 "A"A4||

